public/assets/ready-to-implement-decor.svg

<svg width="232" height="441" viewBox="0 0 232 441" fill="none" xmlns="http://www.w3.org/2000/svg">
<g clip-path="url(#clip0_1_2565)">
<path d="M189.28 74.5499C115.89 98.9299 115.91 147.92 115.91 147.92C115.91 147.92 115.91 99.3099 42.54 74.5499C42.54 74.5499 42.58 71.6399 42.67 70.1999C44.91 31.6999 76.85 1.17993 115.91 1.17993C154.97 1.17993 187.13 31.9199 189.18 70.6099C189.25 71.9099 189.28 74.5499 189.28 74.5499Z" stroke="#338A86" stroke-width="2.36" stroke-linecap="round" stroke-linejoin="round"/>
<path d="M115.91 40.0498V440.31" stroke="#AECC53" stroke-width="2.93" stroke-miterlimit="10"/>
<path d="M115.91 51.6298C122.002 51.6298 126.94 46.6915 126.94 40.5998C126.94 34.5081 122.002 29.5698 115.91 29.5698C109.818 29.5698 104.88 34.5081 104.88 40.5998C104.88 46.6915 109.818 51.6298 115.91 51.6298Z" fill="#AECC53"/>
<path d="M152.03 61.0598C142.89 69.1498 134.96 78.5898 128.57 88.9898C122.39 99.0398 117.83 108.99 115.91 120.74" stroke="#AECC53" stroke-width="1.5" stroke-miterlimit="10"/>
<path d="M148.18 56.9599C150.55 54.9399 154.11 55.2299 156.13 57.5999C158.15 59.9699 157.86 63.5299 155.49 65.5499C153.12 67.5699 149.56 67.2799 147.54 64.9199C145.52 62.5499 145.81 58.9899 148.18 56.9699V56.9599Z" fill="#AECC53"/>
<path d="M79.78 61.0601C88.92 69.1501 96.85 78.5901 103.24 88.9901C109.42 99.0401 113.98 108.99 115.9 120.74" stroke="#AECC53" stroke-width="1.5" stroke-miterlimit="10"/>
<path d="M76.3301 65.54C73.9601 63.52 73.6801 59.96 75.6901 57.59C77.7101 55.22 81.2701 54.94 83.6401 56.95C86.0101 58.97 86.2901 62.53 84.2801 64.9C82.2601 67.27 78.7001 67.55 76.3301 65.53V65.54Z" fill="#AECC53"/>
<path d="M199.85 196.25C165.72 156.59 135.07 169.2 135.07 169.2C135.07 169.2 165.49 156.7 162.12 104.42C162.12 104.42 163.95 103.7 164.87 103.38C189.54 94.89 216.85 107.02 226.9 131.47C236.98 156 225.97 183.95 202.29 195.18C201.49 195.56 199.85 196.26 199.85 196.26V196.25Z" stroke="#338A86" stroke-width="2.36" stroke-linecap="round" stroke-linejoin="round"/>
<path d="M191.48 146.02L151.42 162.48C146.46 164.52 141.47 166.46 136.46 168.24C126.34 171.84 118.17 180.25 115.78 190.76" stroke="#AECC53" stroke-width="2.93" stroke-miterlimit="10"/>
<path d="M186.78 136.03C192.41 133.72 198.86 136.41 201.18 142.04C203.49 147.67 200.8 154.12 195.17 156.44C189.54 158.76 183.09 156.06 180.77 150.43C178.45 144.8 181.15 138.35 186.78 136.03Z" fill="#AECC53"/>
<path d="M198.71 169.47C191.29 165.83 183.35 163.3 175.2 161.97C167.32 160.69 159.92 160.39 152.08 162.21" stroke="#AECC53" stroke-width="1.01" stroke-miterlimit="10"/>
<path d="M200.19 166.04C202.08 166.97 202.86 169.26 201.93 171.14C201 173.02 198.72 173.81 196.83 172.88C194.94 171.95 194.16 169.67 195.09 167.78C196.02 165.89 198.3 165.11 200.19 166.04Z" fill="#AECC53"/>
<path d="M180.13 124.26C177.41 132.06 173.55 139.45 168.68 146.12C163.98 152.57 158.92 157.98 152.07 162.21" stroke="#AECC53" stroke-width="1.01" stroke-miterlimit="10"/>
<path d="M176.4 123.16C177.09 121.17 179.26 120.12 181.25 120.81C183.24 121.5 184.29 123.67 183.6 125.66C182.91 127.65 180.74 128.7 178.75 128.01C176.76 127.32 175.71 125.15 176.4 123.16Z" fill="#AECC53"/>
<path d="M31.97 214.18C66.1 174.52 96.75 187.13 96.75 187.13C96.75 187.13 66.33 174.63 69.7 122.35C69.7 122.35 67.87 121.63 66.95 121.31C42.28 112.82 14.97 124.95 4.91995 149.4C-5.16005 173.93 5.84995 201.88 29.53 213.11C30.33 213.49 31.97 214.19 31.97 214.19V214.18Z" stroke="#338A86" stroke-width="2.36" stroke-linecap="round" stroke-linejoin="round"/>
<path d="M40.33 163.95C54.12 169.62 67.91 175.28 81.71 180.95C87.36 183.27 93.32 184.85 98.21 188.64C105.26 194.1 112.79 201.04 116.01 209.69" stroke="#AECC53" stroke-width="2.93" stroke-miterlimit="10"/>
<path d="M36.65 174.37C31.02 172.06 28.32 165.61 30.64 159.97C32.96 154.33 39.4 151.64 45.04 153.96C50.67 156.27 53.37 162.72 51.05 168.36C48.73 174 42.29 176.69 36.65 174.37Z" fill="#AECC53"/>
<path d="M33.1 187.41C40.52 183.77 48.46 181.24 56.61 179.91C64.49 178.63 71.89 178.33 79.73 180.15" stroke="#AECC53" stroke-width="1.01" stroke-miterlimit="10"/>
<path d="M34.9899 190.81C33.0999 191.74 30.8099 190.96 29.8899 189.07C28.9599 187.18 29.7399 184.89 31.6299 183.97C33.5199 183.05 35.8099 183.82 36.7299 185.71C37.6599 187.6 36.8799 189.89 34.9899 190.81Z" fill="#AECC53"/>
<path d="M51.6799 142.19C54.3999 149.99 58.2599 157.38 63.1299 164.06C67.8299 170.51 72.8899 175.92 79.7399 180.15" stroke="#AECC53" stroke-width="1.01" stroke-miterlimit="10"/>
<path d="M48.21 143.59C47.52 141.6 48.57 139.43 50.56 138.74C52.55 138.05 54.72 139.1 55.41 141.09C56.1 143.08 55.05 145.25 53.06 145.94C51.07 146.63 48.9 145.58 48.21 143.59Z" fill="#AECC53"/>
</g>
<defs>
<clipPath id="clip0_1_2565">
<rect width="231.82" height="440.31" fill="white"/>
</clipPath>
</defs>
</svg>

<svg xmlns="http://www.w3.org/2000/svg" width="232" height="441" fill="none" viewBox="0 0 232 441"><g clip-path="url(#a)"><path stroke="#338a86" stroke-linecap="round" stroke-linejoin="round" stroke-width="2.36" d="M189.28 74.55c-73.39 24.38-73.37 73.37-73.37 73.37s0-48.61-73.37-73.37c0 0 .04-2.91.13-4.35 2.24-38.5 34.18-69.02 73.24-69.02s71.22 30.74 73.27 69.43c.07 1.3.1 3.94.1 3.94"/><path stroke="#aecc53" stroke-miterlimit="10" stroke-width="2.93" d="M115.91 40.05v400.26"/><path fill="#aecc53" d="M115.91 51.63c6.092 0 11.03-4.939 11.03-11.03 0-6.092-4.938-11.03-11.03-11.03s-11.03 4.938-11.03 11.03 4.938 11.03 11.03 11.03"/><path stroke="#aecc53" stroke-miterlimit="10" stroke-width="1.5" d="M152.03 61.06a124.2 124.2 0 0 0-23.46 27.93c-6.18 10.05-10.74 20-12.66 31.75"/><path fill="#aecc53" d="M148.18 56.96a5.64 5.64 0 0 1 7.31 8.59 5.65 5.65 0 0 1-7.95-.63 5.64 5.64 0 0 1 .64-7.95z"/><path stroke="#aecc53" stroke-miterlimit="10" stroke-width="1.5" d="M79.78 61.06c9.14 8.09 17.07 17.53 23.46 27.93 6.18 10.05 10.74 20 12.66 31.75"/><path fill="#aecc53" d="M76.33 65.54a5.65 5.65 0 0 1-.64-7.95 5.65 5.65 0 0 1 7.95-.64 5.65 5.65 0 0 1 .64 7.95 5.64 5.64 0 0 1-7.95.63z"/><path stroke="#338a86" stroke-linecap="round" stroke-linejoin="round" stroke-width="2.36" d="M199.85 196.25c-34.13-39.66-64.78-27.05-64.78-27.05s30.42-12.5 27.05-64.78c0 0 1.83-.72 2.75-1.04 24.67-8.49 51.98 3.64 62.03 28.09 10.08 24.53-.93 52.48-24.61 63.71-.8.38-2.44 1.08-2.44 1.08z"/><path stroke="#aecc53" stroke-miterlimit="10" stroke-width="2.93" d="m191.48 146.02-40.06 16.46c-4.96 2.04-9.95 3.98-14.96 5.76-10.12 3.6-18.29 12.01-20.68 22.52"/><path fill="#aecc53" d="M186.78 136.03c5.63-2.31 12.08.38 14.4 6.01 2.31 5.63-.38 12.08-6.01 14.4s-12.08-.38-14.4-6.01.38-12.08 6.01-14.4"/><path stroke="#aecc53" stroke-miterlimit="10" stroke-width="1.01" d="M198.71 169.47a84.3 84.3 0 0 0-23.51-7.5c-7.88-1.28-15.28-1.58-23.12.24"/><path fill="#aecc53" d="M200.19 166.04a3.81 3.81 0 0 1 1.74 5.1c-.93 1.88-3.21 2.67-5.1 1.74a3.81 3.81 0 0 1-1.74-5.1 3.81 3.81 0 0 1 5.1-1.74"/><path stroke="#aecc53" stroke-miterlimit="10" stroke-width="1.01" d="M180.13 124.26a84 84 0 0 1-11.45 21.86c-4.7 6.45-9.76 11.86-16.61 16.09"/><path fill="#aecc53" d="M176.4 123.16a3.81 3.81 0 0 1 4.85-2.35c1.99.69 3.04 2.86 2.35 4.85a3.81 3.81 0 0 1-4.85 2.35 3.81 3.81 0 0 1-2.35-4.85"/><path stroke="#338a86" stroke-linecap="round" stroke-linejoin="round" stroke-width="2.36" d="M31.97 214.18c34.13-39.66 64.78-27.05 64.78-27.05s-30.42-12.5-27.05-64.78c0 0-1.83-.72-2.75-1.04-24.67-8.49-51.98 3.64-62.03 28.09-10.08 24.53.93 52.48 24.61 63.71.8.38 2.44 1.08 2.44 1.08z"/><path stroke="#aecc53" stroke-miterlimit="10" stroke-width="2.93" d="M40.33 163.95c13.79 5.67 27.58 11.33 41.38 17 5.65 2.32 11.61 3.9 16.5 7.69 7.05 5.46 14.58 12.4 17.8 21.05"/><path fill="#aecc53" d="M36.65 174.37c-5.63-2.31-8.33-8.76-6.01-14.4s8.76-8.33 14.4-6.01c5.63 2.31 8.33 8.76 6.01 14.4s-8.76 8.33-14.4 6.01"/><path stroke="#aecc53" stroke-miterlimit="10" stroke-width="1.01" d="M33.1 187.41a84.3 84.3 0 0 1 23.51-7.5c7.88-1.28 15.28-1.58 23.12.24"/><path fill="#aecc53" d="M34.99 190.81c-1.89.93-4.18.15-5.1-1.74a3.805 3.805 0 0 1 1.74-5.1c1.89-.92 4.18-.15 5.1 1.74.93 1.89.15 4.18-1.74 5.1"/><path stroke="#aecc53" stroke-miterlimit="10" stroke-width="1.01" d="M51.68 142.19c2.72 7.8 6.58 15.19 11.45 21.87 4.7 6.45 9.76 11.86 16.61 16.09"/><path fill="#aecc53" d="M48.21 143.59c-.69-1.99.36-4.16 2.35-4.85s4.16.36 4.85 2.35-.36 4.16-2.35 4.85-4.16-.36-4.85-2.35"/></g><defs><clipPath id="a"><path fill="#fff" d="M0 0h231.82v440.31H0z"/></clipPath></defs></svg>
